src/main/resources/static/icon-downloads.svg

<svg version="1.2" baseProfile="tiny" xmlns="http://www.w3.org/2000/svg" viewBox="0 0 20 20"><path d="M3.567 10h12.813c.895 0 1.62-.712 1.62-1.591s-.725-1.591-1.62-1.591c-.302 0-.585.081-.828.223.096-.298.148-.616.148-.946 0-1.69-1.358-3.061-3.033-3.061-1.645 0-2.984 1.321-3.032 2.969-.457-.779-1.298-1.301-2.26-1.301-1.45 0-2.625 1.187-2.625 2.651 0 .17.016.337.046.499-.287-.307-.731-.504-1.23-.504-.865 0-1.566.594-1.566 1.326s.701 1.326 1.567 1.326z" fill="none"/><path fill="#707070" d="M2.7 12h7.3v2h-3.218l4.718 3.655 4.718-3.655h-3.218v-2h4.521c1.541-.292 2.479-1.796 2.479-3.182 0-1.757-1.209-3.182-2.7-3.182-.004-2.532-2.039-4.584-4.55-4.584-1.68 0-3.147.919-3.935 2.285-.539-.434-1.222-.694-1.965-.694-1.69 0-3.069 1.345-3.147 3.032-.164-.025-.332-.039-.503-.039-1.767 0-3.2 1.425-3.2 3.182 0 1.588 1.17 2.943 2.7 3.182zm.867-4.652c.499 0 .943.197 1.23.504-.031-.161-.047-.327-.047-.498 0-1.464 1.175-2.651 2.625-2.651.962 0 1.802.522 2.26 1.301.048-1.648 1.387-2.969 3.032-2.969 1.675 0 3.033 1.37 3.033 3.061 0 .33-.052.648-.148.946.242-.142.525-.223.828-.223.895 0 1.62.712 1.62 1.591 0 .878-.725 1.59-1.62 1.59h-12.813c-.866 0-1.567-.594-1.567-1.326s.701-1.326 1.567-1.326z"/></svg>

<?xml version="1.0" encoding="iso-8859-1"?>
<!-- Generator: Adobe Illustrator 17.1.0, SVG Export Plug-In . SVG Version: 6.00 Build 0)  -->
<svg version="1.2" baseProfile="tiny" id="Layer_1" xmlns="http://www.w3.org/2000/svg" xmlns:xlink="http://www.w3.org/1999/xlink"
	 x="0px" y="0px" viewBox="0 0 20 20" xml:space="preserve">
<g>
	<polygon fill="none" points="48,0 46,0 46,2 44,2 44,4 46,4 46,6 48,6 48,4 50,4 50,2 48,2 	"/>
	<polygon fill="none" points="38,16 40,16 40,10 40,8 44.657,8 39,2.343 33.343,8 38,8 38,10 	"/>
	<path fill="none" d="M30,12V18c0,1.104,0.893,2,1.995,2h14.01C47.107,20,48,19.113,48,18V12c0-1.104-0.893-2-1.995-2H42v2h4v6H32
		v-6h4v-2h-4.005C30.893,10,30,10.887,30,12z"/>
</g>
<g>
	<path fill="none" d="M14,33c-2.209,0-4,1.791-4,4c0,2.209,1.791,4,4,4s4-1.791,4-4C18,34.791,16.209,33,14,33z M17,38h-2v2h-2v-2
		h-2v-2h2v-2h2v2h2V38z"/>
	<path fill="none" d="M14,32c-2.761,0-5,2.239-5,5c0,1.656,0.805,3.124,2.045,4.034c-0.287,0.284-0.602,0.56-0.946,0.828
		c-1.028,0.803-2.597,1.652-3.836,2.169c-0.337-0.387-0.77-0.686-1.263-0.86v-7.341C6.165,35.417,7,34.306,7,33c0-1.657-1.343-3-3-3
		s-3,1.343-3,3c0,1.306,0.835,2.417,2,2.829v7.341C1.835,43.583,1,44.694,1,46c0,1.657,1.343,3,3,3c1.487,0,2.721-1.081,2.959-2.501
		c0.033,0.006,0.061-0.023,0.08-0.096c0.999-0.375,2.015-0.901,3.05-1.578s2.008-1.497,2.92-2.458
		c0.128-0.135,0.251-0.27,0.369-0.406C13.582,41.987,13.789,42,14,42c2.761,0,5-2.239,5-5S16.761,32,14,32z M14,41
		c-2.209,0-4-1.791-4-4c0-2.209,1.791-4,4-4s4,1.791,4,4C18,39.209,16.209,41,14,41z"/>
	<polygon fill="none" points="15,34 13,34 13,36 11,36 11,38 13,38 13,40 15,40 15,38 17,38 17,36 15,36 	"/>
</g>
<g>
	<path fill="none" d="M3.567,10C3.717,10,3.862,9.982,4,9.949V10h3.203c0.057,0.004,0.114,0.006,0.172,0.006S7.49,10.004,7.547,10
		H16V9.956C16.122,9.985,16.249,10,16.38,10C17.275,10,18,9.288,18,8.409c0-0.879-0.725-1.591-1.62-1.591
		c-0.302,0-0.585,0.081-0.828,0.223C15.648,6.743,15.7,6.425,15.7,6.095c0-1.69-1.358-3.061-3.033-3.061
		c-1.645,0-2.984,1.321-3.032,2.969c-0.457-0.779-1.298-1.301-2.26-1.301c-1.45,0-2.625,1.187-2.625,2.651
		c0,0.17,0.016,0.337,0.046,0.499c-0.287-0.307-0.731-0.504-1.23-0.504C2.701,7.348,2,7.942,2,8.674S2.701,10,3.567,10z"/>
	<path fill="#707070" d="M2.7,11.961V12H10v2H6.782l4.718,3.655L16.218,14H13v-2h5.2v-0.181c1.049-0.437,1.8-1.615,1.8-3.001
		c0-1.757-1.209-3.182-2.7-3.182c-0.004-2.532-2.039-4.584-4.55-4.584c-1.68,0-3.147,0.919-3.935,2.285
		C8.276,2.903,7.593,2.643,6.85,2.643c-1.69,0-3.069,1.345-3.147,3.032C3.539,5.65,3.371,5.636,3.2,5.636
		C1.433,5.636,0,7.061,0,8.818C0,10.406,1.17,11.723,2.7,11.961z M3.567,7.348c0.499,0,0.943,0.197,1.23,0.504
		C4.766,7.691,4.75,7.525,4.75,7.354c0-1.464,1.175-2.651,2.625-2.651c0.962,0,1.802,0.522,2.26,1.301
		c0.048-1.648,1.387-2.969,3.032-2.969c1.675,0,3.033,1.37,3.033,3.061c0,0.33-0.052,0.648-0.148,0.946
		c0.242-0.142,0.525-0.223,0.828-0.223c0.895,0,1.62,0.712,1.62,1.591C18,9.288,17.275,10,16.38,10c-0.131,0-0.258-0.015-0.38-0.044
		V10H7.547c-0.057,0.004-0.114,0.006-0.172,0.006S7.26,10.004,7.203,10H4V9.949C3.862,9.982,3.717,10,3.567,10
		C2.701,10,2,9.406,2,8.674S2.701,7.348,3.567,7.348z"/>
</g>
<polygon fill="none" points="18,-28 16,-28 16,-15 14,-15 14,-24 12,-24 12,-15 10,-15 10,-23 8,-23 8,-15 6,-15 6,-20 4,-20 4,-15 
	0,-15 0,-14 20,-14 20,-15 18,-15 "/>
<g>
	<path fill="none" d="M44.997-28h-8.995C34.897-28,34-27.105,34-26.006v12.012C34-12.893,34.894-12,36.003-12h8.995
		C46.103-12,47-12.895,47-13.994v-12.012C47-27.107,46.106-28,44.997-28z M45-15h-9v-1h9V-15z M45-17h-9v-1h9V-17z M45-19h-9v-1h9
		V-19z M45-21h-9v-1h9V-21z"/>
	<rect x="36" y="-16" fill="none" width="9" height="1"/>
	<rect x="36" y="-22" fill="none" width="9" height="1"/>
	<path fill="none" d="M44.993-30h-8.985C33.794-30,32-28.208,32-26.001v12.002C32-11.791,33.787-10,36.007-10h8.985
		C47.206-10,49-11.792,49-13.999v-12.002C49-28.209,47.213-30,44.993-30z M47-13.994c0,1.1-0.897,1.994-2.003,1.994h-8.995
		C34.894-12,34-12.893,34-13.994v-12.012c0-1.1,0.897-1.994,2.003-1.994h8.995C46.106-28,47-27.107,47-26.006V-13.994z"/>
	<rect x="36" y="-20" fill="none" width="9" height="1"/>
	<rect x="36" y="-18" fill="none" width="9" height="1"/>
</g>
</svg>
